build/assets/img/svg/icon-eye.svg

<svg width="91" height="55" viewBox="0 0 91 55" fill="none" xmlns="http://www.w3.org/2000/svg">
<path d="M45.5 0.37793C28.1135 0.37793 12.3465 9.89025 0.712028 25.3408C-0.237343 26.6066 -0.237343 28.3751 0.712028 29.6409C12.3465 45.1101 28.1135 54.6224 45.5 54.6224C62.8865 54.6224 78.6535 45.11 90.288 29.6595C91.2373 28.3937 91.2373 26.6252 90.288 25.3594C78.6535 9.89026 62.8865 0.37793 45.5 0.37793ZM46.7472 46.5993C35.2058 47.3252 25.6749 37.8129 26.4009 26.2529C26.9966 16.722 34.7218 8.99673 44.2528 8.40104C55.7942 7.67505 65.3251 17.1874 64.5991 28.7474C63.9848 38.2597 56.2595 45.985 46.7472 46.5993ZM46.1701 37.7757C39.9527 38.1666 34.8149 33.0475 35.2245 26.83C35.5409 21.6922 39.7107 17.5411 44.8485 17.206C51.0659 16.8151 56.2037 21.9342 55.7942 28.1517C55.4591 33.3081 51.2893 37.4592 46.1701 37.7757Z" fill="#FFF5F7"/>
</svg>

<svg width="91" height="55" fill="none" xmlns="http://www.w3.org/2000/svg"><path d="M45.5.378C28.113.378 12.346 9.89.712 25.34a3.602 3.602 0 000 4.3C12.347 45.11 28.113 54.622 45.5 54.622c17.386 0 33.153-9.512 44.788-24.962a3.602 3.602 0 000-4.3C78.653 9.89 62.887.377 45.5.377zm1.247 46.221c-11.541.726-21.072-8.786-20.346-20.346.596-9.531 8.32-17.256 17.852-17.852 11.541-.726 21.072 8.786 20.346 20.346-.614 9.513-8.34 17.238-17.852 17.852zm-.577-8.823c-6.217.39-11.355-4.729-10.946-10.946.317-5.138 4.487-9.289 9.625-9.624 6.217-.39 11.355 4.728 10.945 10.946-.335 5.156-4.505 9.307-9.624 9.624z" fill="#FFF5F7"/></svg>
